X:1
T:The Great Battle for Truth
T:The Great Battle for Truth
T:Barney E. Warren, c.1893
T:John E. Roberts
T:PUBLIC DOMAIN
T:PUBLIC DOMAIN
C:Barney E. Warren, c.1893
Z:John E. Roberts
Z:PUBLIC DOMAIN
%%score ( 1 2 ) ( 3 4 )
L:1/8
Q:1/4=100
M:4/4
K:G
V:1 treble nm="Treble"
V:2 treble 
V:3 bass nm="Bass"
V:4 bass 
V:1
 (B3/2 c/) | [Gd]2 [GB]3/2 [DA]/ [DG]2 [DB]3/2 [DA]/ | [B,D]4 [DG]2 [GB]2 | %3
w: 1.~Be- _|hold, might- y an- gels are|fly- ing, All|
w: 2.~The *|“eve- ning” is light as the|“morn- ing,” The|
w: 3.~The *|ar- mies of heav’n are ad-|vanc- ing, They|
w: 4.~While *|Je- sus the bat- tle is|wag- ing ’Gainst|
w: 5.~And *|when this great bat- tle is|end- ed, When|
 [FA]2 [FA]3/2 [GB]/ [Ac]2 [FA]3/2 [Fd]/ | [GB]6 | (B3/2 c/) | %6
w: chos- en and faith- ful and|called,|To *|
w: clouds are all van- ished a-|way;|The *|
w: fol- low the Faith- ful and|True,|On *|
w: Ba- bel- con- fu- sion and|sin,|And *|
w: Je- sus shall come for His|own,|By *|
 [Gd]2 [GB]3/2 [DA]/ [EG]2 [CE]3/2 [CE]/ | [B,D]4 [DG]2 [GB]2 | %8
w: res- cue the dead and the|dy- ing, In|
w: Bride in white rai- ment a-|dorn- ing, God’s|
w: fier- y “white hors- es” they’re|pranc- ing, The|
w: Sa- tan is foam- ing and|rag- ing, Our|
w: myr- iads of an- gels at-|tend- ed, We’ll|
 [FA]2 [FA]3/2 [FA]/ [GB]2 [G^c]3/2 [Gc]/ | [Fd]6 | [Fc]2 | [GB]2 [Gd]3/2 [GB]/ [DG]2 D3/2 D/ | %12
w: Ba- by- lon cag- es en-|thralled.|The|ran- somed are home- ward re-|
w: rem- nant in bat- tle ar-|ray.|The|saints are now joy- ful in|
w: ar- mies of hell to sub-|due.|The|“beast” and his im- age are|
w: Sav- ior is reign- ing with-|in.|The|wolf and the lamb and the|
w: meet ’round our Fa- ther’s white|throne,|And|part nev- er- more, nev- er,|
 [CE]4 [EG]2 [Gc]2 | [GB]2 [GB]3/2 [GB]/ (B3/2 A/) G3/2 [GB]/ | [FA]6 | D2 | %16
w: turn- ing, With|joy ev- er- last- _ ing and|songs,|Long|
w: glo- ry, Re-|hears- ing a- gain * and a-|gain,|The|
w: fight- ing, De-|fend- ing their creeds * and their|cliques,|Sec-|
w: li- on, Made|one in the dear * Sav- ior’s|love,|Are|
w: nev- er; With|loved ones and saved * ones we’ll|sing,|And|
 [DG]2 [DG]3/2 [DA]/ [GB]2 [Gd]3/2 [GB]/ | [EG]4 [CE]2 [EG]2 | %18
w: ag- es in E- gypt so-|journ- ing, Held|
w: won- der- ful, won- der- ful|sto- ry, The|
w: ta- ri- an foes are u-|nit- ing, Six|
w: feed- ing to- geth- er in|Zi- on, As|
w: praise Him for- ev- er and|ev- er, Our|
 [DG]2 [Gd]3/2 [Gc]/ [GB]2 [DA]3/2 [DB]/ | [DG]6 |] %20
w: bound in the fet- ters and|thongs.|
w: love of the Lamb that was|slain.|
w: hun- dred and six- ty and|six.|
w: pure as in heav- en a-|bove.|
w: Sav- ior, our God, and our|King.|
V:2
 D2 | x8 | x8 | x8 | x6 | D2 | x8 | x8 | x8 | x6 | x2 | z4 z2 D3/2 D/ | x8 | z4 G2 G3/2 z/ | x6 | %15
 D2 | x8 | x8 | x8 | x6 |] %20
V:3
 (G,3/2 A,/) | [G,B,]2 [G,D]3/2 [G,C]/ [G,B,]2 [G,,G,]3/2 [G,,G,]/ | [G,,G,]4 [G,,B,]2 [B,,D]2 | %3
 [D,D]2 [D,D]3/2 [D,D]/ [D,D]2 [D,D]3/2 [D,D]/ | [G,D]6 | (G,3/2 A,/) | %6
 [G,B,]2 [B,,D]3/2 [B,,D]/ [C,C]2 [C,G,]3/2 [C,G,]/ | [G,,G,]4 [G,,B,]2 [G,D]2 | %8
 [A,D]2 [A,D]3/2 [A,D]/ [G,D]2 [E,A,]3/2 [E,A,]/ | [D,A,]6 | [D,D]2 | %11
 [G,D]2 [G,B,]3/2 [G,B,]/ [G,B,]2 [B,,G,]3/2 [B,,G,]/ | [C,G,]4 [C,C]2 [C,E]2 | %13
 [G,,D]2 [G,,D]3/2 [G,,D]/ D2 [B,,D]3/2 [B,,D]/ | [D,D]6 | [F,C]2 | %16
 [G,B,]2 [G,B,]3/2 [G,C]/ [G,D]2 [G,B,]3/2 [G,B,]/ | [C,C]4 [C,G,]2 [C,C]2 | %18
 [D,B,]2 [D,B,]3/2 [D,E]/ [D,D]2 [D,C]3/2 [D,C]/ | [G,,B,]6 |] %20
V:4
 G,2 | x8 | x8 | x8 | x6 | G,2 | x8 | x8 | x8 | x6 | x2 | x8 | x8 | z4 (G,,3/2 A,,/) z2 | x6 | x2 | %16
 x8 | x8 | x8 | x6 |] %20

